X: 121
T: Ay Dalgalanırken
C: Artaki Candan
O: Turkey
F: http://compmusic.upf.edu/node/140
N: kurdilihicazkar--sarki--turkaksagi--ay_dalgalanirken--artaki_candan
N: makam= kurdilihicazkar
N: form= sarki
N: usul= turkaksagi = 5/8
M: 5/8
L: 1/16
K: C _B _e _A 
Q: 1/4=96
%%MIDI tuningsystem comma53
f4 (3gab(3bag g/f/g | g2 g2(3bag (3gfgz2  | \
w:  Ay  dal  |  ga la nır  | 
f4 (3bag(3fef d3/2c/ | 
w:  ken   | 
c2 c2(3BAG (3ABc(3BAG  | =e4 (3fed(3c=B=A (3A^GA | 
w:  su la rın   |  oy   | 
g4(3b_1/4ag (3gfe(3_1/4e^de  | f2g2 (3gab(3bag (3aag | 
w:  oy  |  nak_ i zin  | 
g4(3fed efg2  | f3g (3bag(3gfe (3ede | \
w:  de   SAZ  |  Meh *  tâ  | 
e2 {f}ed(3ded (3cdcB2  | 
w:  ba  *  a *  çıl  | 
B4 (3BcB(3AGA (3Bcd | c2 cB(3BcB (3AAGG2  | \
w:  sak   |  ge ce *  nin   | 
g4 (3gfg(3fef d3/2c/ | 
w:  şen   | 
c4(3cBA (3BAGAG  | G2A2 (3Bcd(3cBA AG | \
w:  şen   |  de ni zin  | 
G4(3fed efg2  | 
w:  de   SAZ  | 
f3g (3bag(3gfe (3ede | e2 {f}ed(3ded (3cdcB2  | 
w:  Meh *  tâ  |  ba  *  a *  çıl  | 
B4 (3BcB(3AGA (3Bcd | c2 cB(3BcB (3AAGG2  | \
w:  sak   |  ge ce *  nin   | 
g4 (3gfg(3fef d3/2c/ | 
w:  şen   | 
c4(3cBA (3BAGAG  | G2A2 (3Bcd(3cBA AG | \
w:  şen   |  de ni zin  | 
G4c6  | 
w:  de   SAZ  | 
c4 (3c_1/4Bc(3def (3edc | c2 de(3dcd (3c_1/4BcB2  | \
w:  Dal sam   |  o  de *  rin   | 
c3_1/4B c2B2 A/G/A | 
w:  göz  | 
c2 c2(3fed (3c_1/4BAG/F/G  | =e4 (3fed(3c=B=A (3A^GA | 
w:  le re  bir   |  lâh   | 
g4(3b_1/4ag (3gfe(3_1/4e^de  | f2g2 (3gab(3bag (3aag | 
w:  lâh  |  za  di zin  | 
g4(3fed efg2  | f3g (3bag(3gfe (3ede | \
w:  de   SAZ  |  Meh *  tâ  | 
e2 {f}ed(3ded (3cdcB2  | 
w:  ba  *  a *  çıl  | 
B4 (3BcB(3AGA (3Bcd | c2 cB(3BcB (3AAGG2  | \
w:  sak   |  ge ce *  nin   | 
g4 (3gfg(3fef d3/2c/ | 
w:  şen   | 
c4(3cBA (3BAGAG  | G2A2 (3Bcd(3cBA AG | \
w:  şen   |  de ni zin  | 
G4(3fed efg2  | 
w:  de   SAZ  | 
f3g (3bag(3gfe (3ede | e2 {f}ed(3ded (3cdcB2  | 
w:  Meh *  tâ  |  ba  *  a *  çıl  | 
B4 (3BcB(3AGA (3Bcd | c2 cB(3BcB (3AAGG2  | \
w:  sak   |  ge ce *  nin   | 
g4 (3gfg(3fef d3/2c/ | 
w:  şen   | 
c4(3cBA (3BAGAG  | G2A2 (3Bcd(3cBA AG | \
w:  şen   |  de ni zin  | 
G4|
w:  de    | 


